icons/broadcast-line.svg

<svg viewBox="0 0 24 24" fill="currentColor" xmlns="http://www.w3.org/2000/svg">
    <path d="M4.92893 2.92896L6.34315 4.34317C4.89543 5.79088 4 7.79088 4 10C4 12.2092 4.89543 14.2092 6.34315 15.6569L4.92893 17.0711C3.11929 15.2614 2 12.7614 2 10C2 7.2386 3.11929 4.7386 4.92893 2.92896ZM19.0711 2.92896C20.8807 4.7386 22 7.2386 22 10C22 12.7614 20.8807 15.2614 19.0711 17.0711L17.6569 15.6569C19.1046 14.2092 20 12.2092 20 10C20 7.79088 19.1046 5.79088 17.6569 4.34317L19.0711 2.92896ZM7.75736 5.75738L9.17157 7.1716C8.44771 7.89545 8 8.89545 8 10C8 11.1046 8.44771 12.1046 9.17157 12.8285L7.75736 14.2427C6.67157 13.1569 6 11.6569 6 10C6 8.34317 6.67157 6.84317 7.75736 5.75738ZM16.2426 5.75738C17.3284 6.84317 18 8.34317 18 10C18 11.6569 17.3284 13.1569 16.2426 14.2427L14.8284 12.8285C15.5523 12.1046 16 11.1046 16 10C16 8.89545 15.5523 7.89545 14.8284 7.1716L16.2426 5.75738ZM12 12C10.8954 12 10 11.1046 10 10C10 8.89545 10.8954 8.00002 12 8.00002C13.1046 8.00002 14 8.89545 14 10C14 11.1046 13.1046 12 12 12ZM11 14H13V22H11V14Z"/>
</svg>

<svg xmlns="http://www.w3.org/2000/svg" viewBox="0 0 24 24">
    <g>
        <path fill="none" d="M0 0h24v24H0z"/>
        <path d="M4.929 2.929l1.414 1.414A7.975 7.975 0 0 0 4 10c0 2.21.895 4.21 2.343 5.657L4.93 17.07A9.969 9.969 0 0 1 2 10a9.969 9.969 0 0 1 2.929-7.071zm14.142 0A9.969 9.969 0 0 1 22 10a9.969 9.969 0 0 1-2.929 7.071l-1.414-1.414A7.975 7.975 0 0 0 20 10c0-2.21-.895-4.21-2.343-5.657L19.07 2.93zM7.757 5.757l1.415 1.415A3.987 3.987 0 0 0 8 10c0 1.105.448 2.105 1.172 2.828l-1.415 1.415A5.981 5.981 0 0 1 6 10c0-1.657.672-3.157 1.757-4.243zm8.486 0A5.981 5.981 0 0 1 18 10a5.981 5.981 0 0 1-1.757 4.243l-1.415-1.415A3.987 3.987 0 0 0 16 10a3.987 3.987 0 0 0-1.172-2.828l1.415-1.415zM12 12a2 2 0 1 1 0-4 2 2 0 0 1 0 4zm-1 2h2v8h-2v-8z"/>
    </g>
</svg>
